X:64
T: Jungfer Doertchen
N: Q0057C
O: Mitteleuropa, Deutschland (BRD) , Hessen, Odenwald
R: Ballade, Todesahnung, Tod, Selbstmord
M: 3/4
L: 1/16
K: G
G2G2B2 | d6e2d3e | d4B2
B2A2d2 | c4c2d2A3c | c4B2
G2G2B2 | B6d2d3e | d4B2
B2A2d2 | c6d2A3c | c4B2

